src/assets/svg/focus.svg

<svg width="42" height="42" viewBox="0 0 42 42" fill="none" xmlns="http://www.w3.org/2000/svg">
<g clip-path="url(#clip0)">
<path d="M16.1 29.4H4.9V26.95C4.9 25.5969 3.8031 24.5 2.45 24.5C1.0969 24.5 0 25.5969 0 26.95V41.3C0 41.6866 0.313425 42 0.7 42H10.5C11.6547 42.0051 12.595 41.0731 12.6002 39.9184C12.6025 39.3938 12.4076 38.8875 12.054 38.5C12.782 37.7086 12.782 36.4913 12.054 35.7C12.5807 35.1361 12.7433 34.323 12.474 33.6H16.1C17.2598 33.6 18.2 32.6598 18.2 31.5C18.2 30.3402 17.2598 29.4 16.1 29.4ZM10.5 40.6H7.7C7.31343 40.6 7 40.2866 7 39.9C7 39.5134 7.31343 39.2 7.7 39.2H10.5C10.8866 39.2 11.2 39.5134 11.2 39.9C11.2 40.2866 10.8867 40.6 10.5 40.6ZM10.5 37.8H7.7C7.31343 37.8 7 37.4866 7 37.1C7 36.7134 7.31343 36.4 7.7 36.4H10.5C10.8866 36.4 11.2 36.7134 11.2 37.1C11.2 37.4866 10.8867 37.8 10.5 37.8ZM10.5 35H7.7C7.31343 35 7 34.6866 7 34.3C7 33.9134 7.31343 33.6 7.7 33.6H10.5C10.8866 33.6 11.2 33.9134 11.2 34.3C11.2 34.6866 10.8867 35 10.5 35ZM16.1 32.2H7.7C6.54526 32.1949 5.60499 33.1269 5.59983 34.2816C5.59746 34.8062 5.79241 35.3125 6.146 35.7C5.418 36.4913 5.418 37.7086 6.146 38.5C5.61934 39.0638 5.45668 39.877 5.726 40.6H1.4V26.95C1.4 26.3701 1.87014 25.9 2.45 25.9C3.02986 25.9 3.5 26.3701 3.5 26.95V30.1C3.5 30.4866 3.81343 30.8 4.2 30.8H16.1C16.4866 30.8 16.8 31.1134 16.8 31.5C16.8 31.8866 16.4867 32.2 16.1 32.2Z" fill="black"/>
<path d="M41.2998 2.06289e-05H31.4998C30.3451 -0.00505437 29.4048 0.926908 29.3996 2.08165C29.3973 2.60621 29.5922 3.11248 29.9458 3.50002C29.2178 4.29137 29.2178 5.50867 29.9458 6.30002C29.4191 6.86387 29.2565 7.67701 29.5258 8.40002H25.8998C24.74 8.40002 23.7998 9.34021 23.7998 10.5C23.7998 11.6598 24.74 12.6 25.8998 12.6H37.0998V15.05C37.0998 16.4031 38.1967 17.5 39.5498 17.5C40.9029 17.5 41.9998 16.4031 41.9998 15.05V0.700021C41.9998 0.313446 41.6865 2.06289e-05 41.2998 2.06289e-05ZM31.4998 1.40002H34.2998C34.6864 1.40002 34.9998 1.71345 34.9998 2.10002C34.9998 2.4866 34.6864 2.80002 34.2998 2.80002H31.4998C31.1132 2.80002 30.7998 2.4866 30.7998 2.10002C30.7998 1.71345 31.1132 1.40002 31.4998 1.40002ZM31.4998 4.20002H34.2998C34.6864 4.20002 34.9998 4.51345 34.9998 4.90002C34.9998 5.2866 34.6864 5.60002 34.2998 5.60002H31.4998C31.1132 5.60002 30.7998 5.2866 30.7998 4.90002C30.7998 4.51345 31.1132 4.20002 31.4998 4.20002ZM31.4998 7.00002H34.2998C34.6864 7.00002 34.9998 7.31345 34.9998 7.70002C34.9998 8.0866 34.6864 8.40002 34.2998 8.40002H31.4998C31.1132 8.40002 30.7998 8.0866 30.7998 7.70002C30.7998 7.31345 31.1132 7.00002 31.4998 7.00002ZM40.5998 15.05C40.5998 15.6299 40.1297 16.1 39.5498 16.1C38.9699 16.1 38.4998 15.6299 38.4998 15.05V11.9C38.4998 11.5134 38.1864 11.2 37.7998 11.2H25.8998C25.5132 11.2 25.1998 10.8866 25.1998 10.5C25.1998 10.1134 25.5132 9.80002 25.8998 9.80002H34.2998C35.4545 9.8051 36.3948 8.87313 36.4 7.7184C36.4023 7.19383 36.2074 6.68756 35.8538 6.30002C36.5818 5.50867 36.5818 4.29137 35.8538 3.50002C36.3805 2.93617 36.5431 2.12303 36.2738 1.40002H40.5998V15.05Z" fill="black"/>
<path d="M21 17.5C19.067 17.5 17.5 19.067 17.5 21C17.5023 22.932 19.068 24.4977 21 24.5C22.933 24.5 24.5 22.933 24.5 21C24.5 19.067 22.933 17.5 21 17.5ZM21 23.1C19.8402 23.1 18.9 22.1598 18.9 21C18.9 19.8402 19.8402 18.9 21 18.9C22.1598 18.9 23.1 19.8402 23.1 21C23.1 22.1598 22.1598 23.1 21 23.1Z" fill="#E10303"/>
<path d="M36.9172 20.5317L36.7072 20.2958C28.9002 11.6208 15.5388 10.9173 6.8639 18.7244C6.31292 19.2203 5.78844 19.7448 5.29258 20.2958L5.08258 20.5317C4.84292 20.7978 4.84292 21.202 5.08258 21.4683L5.29258 21.7042C13.0997 30.3791 26.4609 31.0826 35.1359 23.2755C35.6868 22.7796 36.2113 22.2551 36.7072 21.7042L36.9172 21.4683C37.1568 21.2021 37.1568 20.7979 36.9172 20.5317ZM6.54488 21C9.02402 18.3382 12.1897 16.4122 15.6932 15.4343C12.6197 18.3482 12.4903 23.2018 15.4043 26.2753C15.498 26.3742 15.5943 26.4706 15.6932 26.5643C12.1899 25.5866 9.02419 23.6612 6.54488 21ZM20.9999 27.3C17.5205 27.3 14.6999 24.4793 14.6999 21C14.6999 17.5205 17.5204 14.7 20.9999 14.7C24.4775 14.7042 27.2957 17.5224 27.2999 21C27.2999 24.4794 24.4793 27.3 20.9999 27.3ZM26.3066 26.5657C29.38 23.6518 29.5094 18.7981 26.5955 15.7246C26.5018 15.6257 26.4055 15.5294 26.3066 15.4357C29.81 16.4133 32.9756 18.3387 35.4549 21C32.9757 23.6617 29.8101 25.5877 26.3066 26.5657Z" fill="#E10303"/>
</g>
<defs>
<clipPath id="clip0">
<rect width="42" height="42" fill="white"/>
</clipPath>
</defs>
</svg>

<svg width="42" height="42" fill="none" xmlns="http://www.w3.org/2000/svg">
  <g clip-path="url(#prefix__clip0)">
    <path
      d="M16.1 29.4H4.9v-2.45a2.45 2.45 0 10-4.9 0V41.3a.7.7 0 00.7.7h9.8a2.091 2.091 0 001.554-3.5 2.068 2.068 0 000-2.8c.527-.564.69-1.377.42-2.1H16.1a2.1 2.1 0 100-4.2zm-5.6 11.2H7.7a.7.7 0 010-1.4h2.8a.7.7 0 110 1.4zm0-2.8H7.7a.7.7 0 010-1.4h2.8a.7.7 0 110 1.4zm0-2.8H7.7a.7.7 0 010-1.4h2.8a.7.7 0 110 1.4zm5.6-2.8H7.7a2.091 2.091 0 00-1.554 3.5 2.068 2.068 0 000 2.8 2.036 2.036 0 00-.42 2.1H1.4V26.95a1.05 1.05 0 012.1 0v3.15a.7.7 0 00.7.7h11.9a.7.7 0 110 1.4zM41.3 0h-9.8a2.091 2.091 0 00-1.554 3.5 2.068 2.068 0 000 2.8 2.036 2.036 0 00-.42 2.1H25.9a2.1 2.1 0 100 4.2h11.2v2.45a2.45 2.45 0 104.9 0V.7a.7.7 0 00-.7-.7zm-9.8 1.4h2.8a.7.7 0 010 1.4h-2.8a.7.7 0 010-1.4zm0 2.8h2.8a.7.7 0 010 1.4h-2.8a.7.7 0 010-1.4zm0 2.8h2.8a.7.7 0 010 1.4h-2.8a.7.7 0 010-1.4zm9.1 8.05a1.05 1.05 0 11-2.1 0V11.9a.7.7 0 00-.7-.7H25.9a.7.7 0 110-1.4h8.4a2.091 2.091 0 001.554-3.5 2.068 2.068 0 000-2.8c.526-.564.69-1.377.42-2.1H40.6v13.65z"
      fill="#000" />
    <path d="M21 17.5a3.5 3.5 0 100 7 3.5 3.5 0 000-7zm0 5.6a2.1 2.1 0 110-4.2 2.1 2.1 0 010 4.2z" fill="#E10303" />
    <path
      d="M36.917 20.532l-.21-.236C28.9 11.62 15.54 10.917 6.864 18.724a21.136 21.136 0 00-1.571 1.572l-.21.236a.7.7 0 000 .936l.21.236c7.807 8.675 21.168 9.379 29.843 1.572.55-.496 1.075-1.02 1.571-1.572l.21-.236a.7.7 0 000-.936zM6.545 21a19.762 19.762 0 019.148-5.566 7.668 7.668 0 000 11.13A19.765 19.765 0 016.545 21zM21 27.3a6.3 6.3 0 010-12.6 6.308 6.308 0 016.3 6.3 6.3 6.3 0 01-6.3 6.3zm5.307-.734a7.669 7.669 0 000-11.13A19.762 19.762 0 0135.455 21a19.764 19.764 0 01-9.148 5.566z"
      fill="#E10303" />
  </g>
  <defs>
    <clipPath id="prefix__clip0">
      <path fill="#fff" d="M0 0h42v42H0z" />
    </clipPath>
  </defs>
</svg>
